X: 475
U:~=!turn!
M:C|
L:1/8
K:Bb
f | dB B/B/B ~B2 FB | (cd)(ed) cCCc | d>B B/B/B ~B2 FB | (AB)cA BB,B, :|
d | B/B/B (fd) bdfd | B/B/B (fd) eccd | B/B/B (fd) bdfd | (AB)cA BB,B,d |


